;Sliced by ideaMaker 4.0.0.4755, 2020-12-23 21:50:24 UTC+0100
;Dimension: 240.000 240.000 210.000 0.400
;Plate Shape: 1
;Origin Center: 1
;Extruder Offset #1: 25.000 0.000
;Filament Diameter #1: 1.750
;Filament Diameter #2: 1.750
;Filament Compensation #1: 100.00
;Filament Compensation #2: 94.00
;Filament Density #1: 1240.00
;Filament Density #2: 1240.00
;Bounding Box: -28.217 28.217 -43.219 43.211 0.000 13.970
;Model Gap: 0.000
M92 E409.00000
M221 T0 S100.00
G21
G90
M82
M107
G28
M140 S60
M104 S170 T0
M190 S60
G29
M109 S205
G1 Z0 F500
G92 E0
;G1 Z0.2 F400
;G1 X60 Y-2 F800
;G1 X140 Y-2 E12 F200
;G1 Z5 E15 F200
;G92 E0
G1 F12000.0
M117 Printing...
M83
;LAYER:0
;Z:0.200
;HEIGHT:0.200
M106 S0
M140 S60
M104 T0 S225
G1 F3000 E-1.0000
G0 F12000 X-7.544 Y0.002
G0 F1500 Z0.200
;TYPE:SKIRT
;WIDTH:0.450
G1 F1200 E1.0000
G1 F1800 X-7.583 Y-0.663 E0.0374
G1 X-7.672 Y-1.215 E0.0314
G1 X-7.831 Y-1.805 E0.0343
G1 X-8.048 Y-2.365 E0.0337
G1 X-8.367 Y-2.984 E0.0391
G1 X-23.736 Y-29.332 E1.7120
G1 X-24.125 Y-29.497 E0.0237
G1 X-24.615 Y-29.756 E0.0311
G1 X-25.186 Y-30.124 E0.0381
G1 X-25.615 Y-30.455 E0.0304
G1 X-26.117 Y-30.914 E0.0382
G1 X-26.489 Y-31.317 E0.0308
G1 X-26.905 Y-31.853 E0.0381
G1 X-27.205 Y-32.316 E0.0310
G1 X-27.524 Y-32.916 E0.0381
G1 X-27.737 Y-33.416 E0.0305
G1 X-27.951 Y-34.062 E0.0382
G1 X-28.079 Y-34.596 E0.0308
G1 X-28.180 Y-35.267 E0.0381
G1 X-28.215 Y-35.809 E0.0305
G1 X-28.202 Y-36.488 E0.0381
G1 X-28.144 Y-37.037 E0.0310
G1 X-28.015 Y-37.705 E0.0382
G1 X-27.865 Y-38.237 E0.0310
G1 X-27.624 Y-38.873 E0.0382
G1 X-27.388 Y-39.365 E0.0306
G1 X-27.044 Y-39.950 E0.0381
G1 X-26.731 Y-40.393 E0.0304
G1 X-26.293 Y-40.913 E0.0382
G1 X-25.901 Y-41.304 E0.0311
G1 X-25.381 Y-41.741 E0.0381
G1 X-24.935 Y-42.055 E0.0306
G1 X-24.349 Y-42.398 E0.0381
G1 X-23.853 Y-42.634 E0.0308
G1 X-23.216 Y-42.873 E0.0382
G1 X-22.692 Y-43.021 E0.0306
G1 X-22.026 Y-43.149 E0.0381
G1 X-21.474 Y-43.206 E0.0311
G1 X-20.794 Y-43.218 E0.0382
G1 X-20.258 Y-43.183 E0.0301
G1 X-19.586 Y-43.082 E0.0381
G1 X-19.049 Y-42.954 E0.0310
G1 X-18.404 Y-42.740 E0.0381
G1 X-17.900 Y-42.524 E0.0308
G1 X-17.301 Y-42.204 E0.0381
G1 X-16.841 Y-41.904 E0.0308
G1 X-16.305 Y-41.487 E0.0381
G1 X-15.900 Y-41.113 E0.0309
G1 X-15.442 Y-40.610 E0.0382
G1 X-15.113 Y-40.181 E0.0303
G1 X-14.746 Y-39.609 E0.0381
G1 X-14.488 Y-39.118 E0.0311
G1 X-14.224 Y-38.491 E0.0382
G1 X-14.054 Y-37.967 E0.0309
G1 X-13.901 Y-37.306 E0.0381
G1 X-13.824 Y-36.769 E0.0304
G1 X-13.784 Y-36.091 E0.0381
G1 X-13.797 Y-35.550 E0.0304
G1 X-13.846 Y-35.103 E0.0252
G1 X0.000 Y-11.367 E1.5423
G1 X13.846 Y-35.104 E1.5424
G1 X13.798 Y-35.533 E0.0242
G1 X13.783 Y-36.070 E0.0302
G1 X13.820 Y-36.748 E0.0381
G1 X13.898 Y-37.298 E0.0312
G1 X14.051 Y-37.960 E0.0381
G1 X14.219 Y-38.481 E0.0307
G1 X14.482 Y-39.108 E0.0382
G1 X14.738 Y-39.597 E0.0310
G1 X15.104 Y-40.170 E0.0382
G1 X15.435 Y-40.603 E0.0306
G1 X15.892 Y-41.106 E0.0381
G1 X16.296 Y-41.480 E0.0309
G1 X16.832 Y-41.898 E0.0382
G1 X17.292 Y-42.198 E0.0308
G1 X17.891 Y-42.519 E0.0381
G1 X18.393 Y-42.735 E0.0307
G1 X19.037 Y-42.950 E0.0381
G1 X19.569 Y-43.079 E0.0307
G1 X20.241 Y-43.182 E0.0382
G1 X20.777 Y-43.219 E0.0302
G1 X21.457 Y-43.209 E0.0382
G1 X22.013 Y-43.152 E0.0314
G1 X22.680 Y-43.025 E0.0381
G1 X23.206 Y-42.878 E0.0307
G1 X23.843 Y-42.640 E0.0382
G1 X24.338 Y-42.406 E0.0307
G1 X24.925 Y-42.064 E0.0381
G1 X25.376 Y-41.746 E0.0310
G1 X25.896 Y-41.309 E0.0381
G1 X26.283 Y-40.923 E0.0307
G1 X26.722 Y-40.404 E0.0382
G1 X27.038 Y-39.959 E0.0306
G1 X27.383 Y-39.374 E0.0381
G1 X27.621 Y-38.879 E0.0308
G1 X27.862 Y-38.243 E0.0382
G1 X28.011 Y-37.717 E0.0307
G1 X28.141 Y-37.050 E0.0381
G1 X28.200 Y-36.514 E0.0303
G1 X28.217 Y-35.835 E0.0381
G1 X28.183 Y-35.279 E0.0313
G1 X28.083 Y-34.607 E0.0381
G1 X27.956 Y-34.072 E0.0309
G1 X27.743 Y-33.426 E0.0382
G1 X27.530 Y-32.926 E0.0305
G1 X27.212 Y-32.326 E0.0381
G1 X26.911 Y-31.861 E0.0311
G1 X26.495 Y-31.324 E0.0381
G1 X26.127 Y-30.923 E0.0305
G1 X25.626 Y-30.463 E0.0382
G1 X25.192 Y-30.128 E0.0308
G1 X24.621 Y-29.760 E0.0381
G1 X24.135 Y-29.503 E0.0309
G1 X23.737 Y-29.334 E0.0243
G1 X8.367 Y-2.984 E1.7121
G1 X8.048 Y-2.365 E0.0391
G1 X7.831 Y-1.805 E0.0337
G1 X7.673 Y-1.222 E0.0339
G1 X7.576 Y-0.613 E0.0346
G1 X7.544 Y-0.012 E0.0338
G1 X7.583 Y0.654 E0.0374
G1 X7.672 Y1.206 E0.0314
G1 X7.831 Y1.796 E0.0343
G1 X8.048 Y2.356 E0.0337
G1 X8.367 Y2.975 E0.0391
G1 X23.736 Y29.323 E1.7120
G1 X24.131 Y29.491 E0.0241
G1 X24.615 Y29.747 E0.0307
G1 X25.186 Y30.114 E0.0381
G1 X25.621 Y30.449 E0.0308
G1 X26.122 Y30.908 E0.0381
G1 X26.494 Y31.313 E0.0309
G1 X26.910 Y31.851 E0.0382
G1 X27.207 Y32.310 E0.0307
G1 X27.526 Y32.910 E0.0381
G1 X27.740 Y33.413 E0.0307
G1 X27.953 Y34.058 E0.0381
G1 X28.081 Y34.594 E0.0309
G1 X28.181 Y35.266 E0.0381
G1 X28.215 Y35.803 E0.0302
G1 X28.202 Y36.482 E0.0381
G1 X28.143 Y37.037 E0.0313
G1 X28.013 Y37.704 E0.0381
G1 X27.864 Y38.230 E0.0307
G1 X27.623 Y38.866 E0.0382
G1 X27.388 Y39.356 E0.0305
G1 X27.044 Y39.942 E0.0381
G1 X26.725 Y40.392 E0.0310
G1 X26.286 Y40.911 E0.0382
G1 X25.899 Y41.297 E0.0307
G1 X25.379 Y41.734 E0.0381
G1 X24.930 Y42.050 E0.0308
G1 X24.344 Y42.392 E0.0381
G1 X23.851 Y42.626 E0.0306
G1 X23.214 Y42.865 E0.0382
G1 X22.684 Y43.014 E0.0309
G1 X22.017 Y43.141 E0.0381
G1 X21.480 Y43.197 E0.0303
G1 X20.800 Y43.211 E0.0382
G1 X20.245 Y43.175 E0.0312
G1 X19.573 Y43.072 E0.0382
G1 X19.041 Y42.943 E0.0307
G1 X18.397 Y42.728 E0.0381
G1 X17.900 Y42.515 E0.0303
G1 X17.300 Y42.195 E0.0382
G1 X16.835 Y41.892 E0.0312
G1 X16.299 Y41.474 E0.0382
G1 X15.895 Y41.100 E0.0309
G1 X15.438 Y40.597 E0.0381
G1 X15.109 Y40.166 E0.0304
G1 X14.743 Y39.594 E0.0381
G1 X14.487 Y39.107 E0.0309
G1 X14.223 Y38.480 E0.0382
G1 X14.053 Y37.955 E0.0310
G1 X13.900 Y37.293 E0.0381
G1 X13.822 Y36.752 E0.0307
G1 X13.783 Y36.074 E0.0381
G1 X13.797 Y35.538 E0.0301
G1 X13.846 Y35.094 E0.0251
G1 X0.000 Y11.358 E1.5423
G1 X-13.846 Y35.094 E1.5423
G1 X-13.798 Y35.521 E0.0241
G1 X-13.783 Y36.058 E0.0302
G1 X-13.820 Y36.736 E0.0381
G1 X-13.898 Y37.286 E0.0312
G1 X-14.051 Y37.948 E0.0381
G1 X-14.217 Y38.465 E0.0305
G1 X-14.479 Y39.092 E0.0381
G1 X-14.736 Y39.583 E0.0311
G1 X-15.102 Y40.157 E0.0382
G1 X-15.432 Y40.589 E0.0305
G1 X-15.888 Y41.092 E0.0381
G1 X-16.294 Y41.469 E0.0311
G1 X-16.830 Y41.887 E0.0382
G1 X-17.284 Y42.184 E0.0304
G1 X-17.882 Y42.506 E0.0381
G1 X-18.385 Y42.724 E0.0308
G1 X-19.029 Y42.940 E0.0381
G1 X-19.566 Y43.070 E0.0310
G1 X-20.238 Y43.173 E0.0382
G1 X-20.774 Y43.210 E0.0302
G1 X-21.454 Y43.200 E0.0382
G1 X-22.010 Y43.143 E0.0314
G1 X-22.677 Y43.016 E0.0381
G1 X-23.199 Y42.871 E0.0304
G1 X-23.836 Y42.634 E0.0381
G1 X-24.332 Y42.399 E0.0308
G1 X-24.920 Y42.057 E0.0382
G1 X-25.371 Y41.740 E0.0309
G1 X-25.891 Y41.304 E0.0381
G1 X-26.281 Y40.916 E0.0309
G1 X-26.720 Y40.397 E0.0382
G1 X-27.033 Y39.958 E0.0303
G1 X-27.379 Y39.374 E0.0381
G1 X-27.620 Y38.873 E0.0312
G1 X-27.861 Y38.237 E0.0382
G1 X-28.010 Y37.716 E0.0304
G1 X-28.141 Y37.049 E0.0382
G1 X-28.200 Y36.508 E0.0305
G1 X-28.217 Y35.829 E0.0381
G1 X-28.183 Y35.273 E0.0313
G1 X-28.083 Y34.601 E0.0381
G1 X-27.957 Y34.070 E0.0306
G1 X-27.745 Y33.424 E0.0382
G1 X-27.531 Y32.920 E0.0307
G1 X-27.213 Y32.320 E0.0381
G1 X-26.918 Y31.863 E0.0305
G1 X-26.503 Y31.324 E0.0382
G1 X-26.127 Y30.913 E0.0313
G1 X-25.626 Y30.454 E0.0381
G1 X-25.200 Y30.125 E0.0302
G1 X-24.630 Y29.756 E0.0381
G1 X-24.138 Y29.495 E0.0313
G1 X-23.736 Y29.324 E0.0245
G1 X-8.367 Y2.975 E1.7121
G1 X-8.048 Y2.356 E0.0391
G1 X-7.831 Y1.796 E0.0337
G1 X-7.673 Y1.213 E0.0339
G1 X-7.576 Y0.604 E0.0346
G1 X-7.544 Y0.002 E0.0338
G1 F3000 E-1.0000
G0 F12000 X20.858 Y33.024
;TYPE:WALL-INNER
;WIDTH:0.450
G1 F1200 E1.0000
G1 F1800 X21.893 Y33.267 E0.0597
G1 X22.343 Y33.458 E0.0274
G1 X22.753 Y33.722 E0.0274
G1 X23.112 Y34.051 E0.0273
G1 X23.411 Y34.437 E0.0274
G1 X23.640 Y34.868 E0.0274
G1 X23.793 Y35.330 E0.0273
G1 X23.864 Y35.814 E0.0275
G1 X23.855 Y36.301 E0.0273
G1 X23.763 Y36.777 E0.0272
G1 X23.589 Y37.235 E0.0275
G1 X23.341 Y37.656 E0.0274
G1 X23.027 Y38.028 E0.0273
G1 X22.654 Y38.342 E0.0274
G1 X22.233 Y38.587 E0.0273
G1 X21.776 Y38.759 E0.0274
G1 X21.296 Y38.850 E0.0274
G1 X20.807 Y38.860 E0.0275
G1 X20.327 Y38.787 E0.0273
G1 X19.864 Y38.632 E0.0274
G1 X19.433 Y38.402 E0.0274
G1 X19.050 Y38.103 E0.0273
G1 X18.722 Y37.741 E0.0274
G1 X18.459 Y37.331 E0.0273
G1 X18.270 Y36.882 E0.0273
G1 X18.160 Y36.407 E0.0274
G1 X18.131 Y35.919 E0.0274
G1 X18.185 Y35.434 E0.0274
G1 X18.482 Y34.408 E0.0599
G1 X3.536 Y8.786 E1.6649
G1 X3.110 Y8.194 E0.0409
G1 X2.543 Y7.658 E0.0438
G1 X1.886 Y7.237 E0.0438
G1 X1.160 Y6.946 E0.0439
G1 X0.391 Y6.799 E0.0439
G1 X-0.397 Y6.799 E0.0442
G1 X-1.196 Y6.961 E0.0458
G1 X-1.886 Y7.237 E0.0417
G1 X-2.543 Y7.658 E0.0438
G1 X-3.110 Y8.194 E0.0438
G1 X-3.536 Y8.786 E0.0409
G1 X-18.482 Y34.408 E1.6649
G1 X-18.186 Y35.427 E0.0596
G1 X-18.131 Y35.915 E0.0276
G1 X-18.158 Y36.402 E0.0274
G1 X-18.268 Y36.877 E0.0274
G1 X-18.455 Y37.326 E0.0273
G1 X-18.718 Y37.738 E0.0274
G1 X-19.045 Y38.099 E0.0273
G1 X-19.430 Y38.399 E0.0274
G1 X-19.861 Y38.631 E0.0275
G1 X-20.320 Y38.785 E0.0272
G1 X-20.804 Y38.859 E0.0275
G1 X-21.293 Y38.852 E0.0274
G1 X-21.771 Y38.761 E0.0273
G1 X-22.229 Y38.591 E0.0274
G1 X-22.649 Y38.345 E0.0273
G1 X-23.022 Y38.033 E0.0273
G1 X-23.338 Y37.659 E0.0275
G1 X-23.586 Y37.240 E0.0273
G1 X-23.760 Y36.784 E0.0274
G1 X-23.854 Y36.304 E0.0275
G1 X-23.866 Y35.818 E0.0273
G1 X-23.795 Y35.336 E0.0273
G1 X-23.641 Y34.872 E0.0274
G1 X-23.413 Y34.440 E0.0274
G1 X-23.116 Y34.054 E0.0273
G1 X-22.757 Y33.725 E0.0273
G1 X-22.347 Y33.460 E0.0274
G1 X-21.898 Y33.270 E0.0274
G1 X-20.856 Y33.022 E0.0601
G1 X-4.553 Y5.071 E1.8161
G1 X-4.078 Y4.148 E0.0583
G1 X-3.692 Y3.150 E0.0601
G1 X-3.412 Y2.118 E0.0600
G1 X-3.244 Y1.064 E0.0599
G1 X-3.187 Y-0.008 E0.0603
G1 X-3.252 Y-1.130 E0.0631
G1 X-3.412 Y-2.128 E0.0567
G1 X-3.692 Y-3.159 E0.0600
G1 X-4.078 Y-4.157 E0.0601
G1 X-4.553 Y-5.080 E0.0583
G1 X-20.858 Y-33.033 E1.8163
G1 X-21.892 Y-33.275 E0.0596
G1 X-22.340 Y-33.465 E0.0273
G1 X-22.750 Y-33.730 E0.0274
G1 X-23.111 Y-34.059 E0.0274
G1 X-23.409 Y-34.443 E0.0273
G1 X-23.638 Y-34.875 E0.0274
G1 X-23.792 Y-35.339 E0.0274
G1 X-23.864 Y-35.820 E0.0273
G1 X-23.855 Y-36.308 E0.0274
G1 X-23.762 Y-36.786 E0.0273
G1 X-23.590 Y-37.242 E0.0274
G1 X-23.342 Y-37.663 E0.0274
G1 X-23.028 Y-38.035 E0.0273
G1 X-22.656 Y-38.349 E0.0273
G1 X-22.235 Y-38.595 E0.0274
G1 X-21.778 Y-38.767 E0.0274
G1 X-21.300 Y-38.859 E0.0273
G1 X-20.812 Y-38.867 E0.0274
G1 X-20.328 Y-38.795 E0.0275
G1 X-19.865 Y-38.641 E0.0274
G1 X-19.436 Y-38.412 E0.0273
G1 X-19.052 Y-38.113 E0.0273
G1 X-18.722 Y-37.752 E0.0275
G1 X-18.460 Y-37.342 E0.0273
G1 X-18.271 Y-36.892 E0.0274
G1 X-18.160 Y-36.418 E0.0273
G1 X-18.131 Y-35.931 E0.0274
G1 X-18.185 Y-35.445 E0.0274
G1 X-18.482 Y-34.417 E0.0601
G1 X-3.536 Y-8.795 E1.6649
G1 X-3.110 Y-8.203 E0.0409
G1 X-2.543 Y-7.667 E0.0438
G1 X-1.885 Y-7.246 E0.0438
G1 X-1.160 Y-6.956 E0.0438
G1 X-0.392 Y-6.808 E0.0439
G1 X0.392 Y-6.808 E0.0440
G1 X1.160 Y-6.956 E0.0439
G1 X1.885 Y-7.246 E0.0438
G1 X2.543 Y-7.667 E0.0438
G1 X3.110 Y-8.203 E0.0438
G1 X3.536 Y-8.795 E0.0409
G1 X18.482 Y-34.417 E1.6649
G1 X18.186 Y-35.439 E0.0597
G1 X18.131 Y-35.927 E0.0276
G1 X18.158 Y-36.413 E0.0273
G1 X18.268 Y-36.887 E0.0273
G1 X18.456 Y-37.336 E0.0273
G1 X18.719 Y-37.748 E0.0274
G1 X19.047 Y-38.109 E0.0274
G1 X19.432 Y-38.410 E0.0274
G1 X19.861 Y-38.639 E0.0273
G1 X20.323 Y-38.794 E0.0274
G1 X20.807 Y-38.868 E0.0275
G1 X21.296 Y-38.861 E0.0274
G1 X21.772 Y-38.770 E0.0272
G1 X22.230 Y-38.599 E0.0274
G1 X22.651 Y-38.354 E0.0273
G1 X23.024 Y-38.040 E0.0274
G1 X23.340 Y-37.668 E0.0274
G1 X23.587 Y-37.248 E0.0273
G1 X23.761 Y-36.790 E0.0275
G1 X23.854 Y-36.310 E0.0274
G1 X23.866 Y-35.824 E0.0273
G1 X23.795 Y-35.343 E0.0273
G1 X23.642 Y-34.879 E0.0274
G1 X23.413 Y-34.448 E0.0274
G1 X23.116 Y-34.064 E0.0272
G1 X22.755 Y-33.733 E0.0275
G1 X22.345 Y-33.469 E0.0274
G1 X21.896 Y-33.278 E0.0274
G1 X20.859 Y-33.034 E0.0598
G1 X4.553 Y-5.080 E1.8164
G1 X4.078 Y-4.157 E0.0583
G1 X3.692 Y-3.159 E0.0601
G1 X3.412 Y-2.127 E0.0600
G1 X3.244 Y-1.073 E0.0599
G1 X3.187 Y-0.002 E0.0602
G1 X3.252 Y1.121 E0.0631
G1 X3.412 Y2.119 E0.0567
G1 X3.692 Y3.150 E0.0600
G1 X4.078 Y4.148 E0.0601
G1 X4.553 Y5.071 E0.0583
G1 X20.858 Y33.024 E1.8163
G1 F3000 E-1.0000
G0 F12000 X21.149 Y32.630
G1 F1200 E1.0000
G1 F1800 X22.033 Y32.838 E0.0510
G1 X22.554 Y33.059 E0.0318
G1 X23.029 Y33.364 E0.0317
G1 X23.444 Y33.745 E0.0316
G1 X23.790 Y34.192 E0.0317
G1 X24.055 Y34.691 E0.0317
G1 X24.232 Y35.226 E0.0316
G1 X24.315 Y35.785 E0.0317
G1 X24.304 Y36.348 E0.0316
G1 X24.197 Y36.901 E0.0316
G1 X23.996 Y37.430 E0.0318
G1 X23.710 Y37.917 E0.0317
G1 X23.346 Y38.348 E0.0317
G1 X22.914 Y38.711 E0.0317
G1 X22.427 Y38.995 E0.0316
G1 X21.898 Y39.194 E0.0317
G1 X21.343 Y39.299 E0.0317
G1 X20.778 Y39.311 E0.0317
G1 X20.221 Y39.226 E0.0316
G1 X19.685 Y39.047 E0.0317
G1 X19.187 Y38.781 E0.0317
G1 X18.743 Y38.434 E0.0316
G1 X18.363 Y38.016 E0.0317
G1 X18.059 Y37.541 E0.0317
G1 X17.840 Y37.021 E0.0317
G1 X17.713 Y36.471 E0.0317
G1 X17.680 Y35.907 E0.0317
G1 X17.742 Y35.346 E0.0317
G1 X17.996 Y34.468 E0.0513
G1 X3.158 Y9.031 E1.6528
G1 X2.770 Y8.492 E0.0373
G1 X2.265 Y8.014 E0.0390
G1 X1.679 Y7.639 E0.0390
G1 X1.033 Y7.380 E0.0391
G1 X0.348 Y7.249 E0.0391
G1 X-0.352 Y7.249 E0.0393
G1 X-1.067 Y7.394 E0.0409
G1 X-1.679 Y7.639 E0.0370
G1 X-2.265 Y8.014 E0.0390
G1 X-2.770 Y8.492 E0.0390
G1 X-3.158 Y9.031 E0.0373
G1 X-17.996 Y34.468 E1.6528
G1 X-17.743 Y35.339 E0.0509
G1 X-17.680 Y35.902 E0.0318
G1 X-17.711 Y36.465 E0.0316
G1 X-17.838 Y37.015 E0.0317
G1 X-18.055 Y37.535 E0.0316
G1 X-18.359 Y38.012 E0.0317
G1 X-18.738 Y38.430 E0.0317
G1 X-19.183 Y38.777 E0.0317
G1 X-19.681 Y39.045 E0.0317
G1 X-20.214 Y39.224 E0.0316
G1 X-20.773 Y39.309 E0.0317
G1 X-21.338 Y39.301 E0.0317
G1 X-21.892 Y39.196 E0.0316
G1 X-22.422 Y38.999 E0.0317
G1 X-22.909 Y38.714 E0.0317
G1 X-23.341 Y38.353 E0.0316
G1 X-23.706 Y37.921 E0.0317
G1 X-23.993 Y37.436 E0.0316
G1 X-24.194 Y36.908 E0.0317
G1 X-24.303 Y36.353 E0.0317
G1 X-24.317 Y35.790 E0.0316
G1 X-24.234 Y35.232 E0.0317
G1 X-24.057 Y34.695 E0.0317
G1 X-23.793 Y34.196 E0.0317
G1 X-23.449 Y33.749 E0.0317
G1 X-23.033 Y33.368 E0.0317
G1 X-22.559 Y33.061 E0.0317
G1 X-22.039 Y32.841 E0.0317
G1 X-21.148 Y32.629 E0.0514
G1 X-4.948 Y4.855 E1.8047
G1 X-4.489 Y3.963 E0.0563
G1 X-4.120 Y3.010 E0.0574
G1 X-3.853 Y2.023 E0.0574
G1 X-3.692 Y1.016 E0.0572
G1 X-3.638 Y-0.007 E0.0575
G1 X-3.700 Y-1.081 E0.0604
G1 X-3.853 Y-2.033 E0.0541
G1 X-4.120 Y-3.019 E0.0573
G1 X-4.489 Y-3.972 E0.0574
G1 X-4.948 Y-4.864 E0.0563
G1 X-21.149 Y-32.639 E1.8047
G1 X-22.032 Y-32.846 E0.0509
G1 X-22.551 Y-33.066 E0.0316
G1 X-23.026 Y-33.372 E0.0317
G1 X-23.443 Y-33.753 E0.0317
G1 X-23.788 Y-34.198 E0.0316
G1 X-24.053 Y-34.697 E0.0317
G1 X-24.231 Y-35.234 E0.0318
G1 X-24.315 Y-35.791 E0.0316
G1 X-24.304 Y-36.355 E0.0317
G1 X-24.197 Y-36.909 E0.0317
G1 X-23.997 Y-37.437 E0.0317
G1 X-23.711 Y-37.924 E0.0317
G1 X-23.347 Y-38.355 E0.0317
G1 X-22.916 Y-38.718 E0.0316
G1 X-22.429 Y-39.003 E0.0317
G1 X-21.900 Y-39.202 E0.0317
G1 X-21.347 Y-39.308 E0.0316
G1 X-20.782 Y-39.318 E0.0317
G1 X-20.223 Y-39.234 E0.0317
G1 X-19.687 Y-39.056 E0.0317
G1 X-19.190 Y-38.791 E0.0316
G1 X-18.745 Y-38.445 E0.0316
G1 X-18.364 Y-38.027 E0.0317
G1 X-18.060 Y-37.552 E0.0317
G1 X-17.841 Y-37.031 E0.0317
G1 X-17.713 Y-36.483 E0.0316
G1 X-17.680 Y-35.919 E0.0317
G1 X-17.742 Y-35.357 E0.0317
G1 X-17.996 Y-34.477 E0.0514
G1 X-3.158 Y-9.040 E1.6528
G1 X-2.770 Y-8.501 E0.0373
G1 X-2.265 Y-8.023 E0.0390
G1 X-1.678 Y-7.648 E0.0391
G1 X-1.033 Y-7.390 E0.0390
G1 X-0.349 Y-7.258 E0.0391
G1 X0.349 Y-7.258 E0.0392
G1 X1.033 Y-7.390 E0.0391
G1 X1.678 Y-7.648 E0.0390
G1 X2.265 Y-8.023 E0.0391
G1 X2.770 Y-8.501 E0.0390
G1 X3.158 Y-9.040 E0.0373
G1 X17.996 Y-34.477 E1.6528
G1 X17.743 Y-35.351 E0.0511
G1 X17.680 Y-35.914 E0.0318
G1 X17.711 Y-36.477 E0.0316
G1 X17.838 Y-37.026 E0.0316
G1 X18.056 Y-37.546 E0.0316
G1 X18.360 Y-38.022 E0.0317
G1 X18.740 Y-38.440 E0.0317
G1 X19.185 Y-38.788 E0.0317
G1 X19.682 Y-39.054 E0.0316
G1 X20.217 Y-39.233 E0.0317
G1 X20.776 Y-39.318 E0.0317
G1 X21.341 Y-39.310 E0.0317
