;FLAVOR:Marlin
;TIME:3214
;Filament used: 7.46847m
;Layer height: 0.3
;MINX:81.924
;MINY:74.432
;MINZ:0.3
;MAXX:153.076
;MAXY:145.568
;MAXZ:49.8
;Generated with Cura_SteamEngine 4.8.0
SET_VELOCITY_LIMIT SQUARE_CORNER_VELOCITY=1 ACCEL=500
TUNING_TOWER COMMAND=SET_PRESSURE_ADVANCE PARAMETER=ADVANCE START=0 FACTOR=.005
START_PRINT BED_TEMP=50 EXTRUDER_TEMP=200
;LAYER_COUNT:166
;LAYER:0
M107
G0 F9000 X83.981 Y76.819 Z0.3
;TYPE:SKIRT
G1 F2700 E0.12473
G1 F2400 X84.203 Y76.577 E0.14029
G1 X84.545 Y76.267 E0.16217
G1 X85.267 Y75.722 E0.20504
G1 X85.468 Y75.581 E0.21668
G1 X85.859 Y75.355 E0.23808
G1 X86.635 Y74.993 E0.27867
G1 X86.878 Y74.888 E0.29121
G1 X87.318 Y74.743 E0.31317
G1 X88.142 Y74.552 E0.35326
G1 X88.406 Y74.499 E0.36602
G1 X88.865 Y74.449 E0.38791
G1 X89.741 Y74.432 E0.42943
G1 X89.997 Y74.436 E0.44157
G1 X90.446 Y74.483 E0.46296
G1 X91.331 Y74.654 E0.50569
G1 X92.665 Y74.958 E0.57053
G1 X95.385 Y75.537 E0.70234
G1 X98.075 Y76.032 E0.83197
G1 X100.817 Y76.456 E0.96348
G1 X103.552 Y76.8 E1.09412
G1 X106.293 Y77.067 E1.22465
G1 X109.036 Y77.255 E1.35496
G1 X111.787 Y77.366 E1.48545
G1 X114.374 Y77.4 E1.60808
G1 X120.682 Y77.4 E1.90705
G1 X123.47 Y77.361 E2.0392
G1 X126.254 Y77.242 E2.17127
G1 X128.969 Y77.05 E2.30027
G1 X131.702 Y76.779 E2.43044
G1 X134.462 Y76.426 E2.56232
G1 X137.162 Y76.002 E2.69185
G1 X139.866 Y75.499 E2.82221
G1 X142.888 Y74.844 E2.96877
G1 X144.062 Y74.569 E3.02591
G1 X144.42 Y74.497 E3.04322
G1 X144.869 Y74.449 E3.06462
G1 X145.741 Y74.432 E3.10596
G1 X145.997 Y74.436 E3.1181
G1 X146.446 Y74.483 E3.13949
G1 X147.332 Y74.654 E3.18226
G1 X147.573 Y74.709 E3.19398
G1 X148.008 Y74.849 E3.21563
G1 X148.751 Y75.165 E3.2539
G1 X149.027 Y75.291 E3.26828
G1 X149.437 Y75.525 E3.29066
G1 X150.085 Y75.978 E3.32813
G1 X150.344 Y76.171 E3.34344
G1 X150.68 Y76.47 E3.36476
G1 X151.236 Y77.061 E3.40321
G1 X151.469 Y77.327 E3.41997
G1 X151.727 Y77.683 E3.44081
G1 X152.172 Y78.421 E3.48166
G1 X152.299 Y78.648 E3.49398
G1 X152.486 Y79.065 E3.51564
G1 X152.768 Y79.879 E3.55647
G1 X152.848 Y80.136 E3.56923
G1 X152.945 Y80.588 E3.59114
G1 X153.048 Y81.425 E3.63111
G1 X153.074 Y81.706 E3.64449
G1 X153.076 Y82.168 E3.66638
G1 X153.01 Y82.939 E3.70306
G1 X152.963 Y83.344 E3.72238
G1 X152.912 Y83.635 E3.73639
G1 X152.706 Y84.508 E3.7789
G1 X152.103 Y87.235 E3.91127
G1 X151.593 Y89.889 E4.03936
G1 X151.148 Y92.638 E4.17135
G1 X150.788 Y95.339 E4.30049
G1 X150.494 Y98.131 E4.43355
G1 X150.289 Y100.824 E4.56156
G1 X150.157 Y103.577 E4.69219
G1 X150.1 Y106.931 E4.85118
G1 X150.1 Y113.092 E5.14318
G1 X150.139 Y115.88 E5.27533
G1 X150.258 Y118.664 E5.4074
G1 X150.45 Y121.375 E5.53622
G1 X150.721 Y124.113 E5.66662
G1 X151.074 Y126.871 E5.7984
G1 X151.498 Y129.57 E5.92789
G1 X152.002 Y132.28 E6.05854
G1 X152.582 Y134.978 E6.18933
G1 X152.885 Y136.243 E6.25098
G1 X152.937 Y136.527 E6.26467
G1 X153.048 Y137.426 E6.3076
G1 X153.074 Y137.706 E6.32093
G1 X153.076 Y138.166 E6.34273
G1 X153.012 Y138.921 E6.37864
G1 X152.97 Y139.285 E6.39601
G1 X152.877 Y139.734 E6.41774
G1 X152.647 Y140.494 E6.45538
G1 X152.539 Y140.813 E6.47134
G1 X152.357 Y141.225 E6.49269
G1 X151.99 Y141.892 E6.52877
G1 X151.796 Y142.22 E6.54683
G1 X151.53 Y142.59 E6.56843
G1 X150.972 Y143.233 E6.60878
G1 X150.8 Y143.42 E6.62082
G1 X150.455 Y143.733 E6.6429
G1 X149.738 Y144.274 E6.68547
G1 X149.538 Y144.415 E6.69707
G1 X149.142 Y144.645 E6.71877
G1 X148.439 Y144.974 E6.75556
G1 X148.124 Y145.111 E6.77184
G1 X147.683 Y145.257 E6.79386
G1 X146.858 Y145.448 E6.83399
G1 X146.594 Y145.501 E6.84675
G1 X146.135 Y145.551 E6.86864
G1 X145.259 Y145.568 E6.91016
G1 X145.003 Y145.564 E6.9223
G1 X144.554 Y145.517 E6.9437
G1 X143.669 Y145.346 E6.98642
G1 X142.335 Y145.042 E7.05126
G1 X139.615 Y144.463 E7.18307
G1 X136.925 Y143.968 E7.3127
G1 X134.183 Y143.544 E7.44421
G1 X131.448 Y143.2 E7.57486
G1 X128.707 Y142.933 E7.70538
G1 X125.964 Y142.745 E7.83569
G1 X123.213 Y142.634 E7.96619
G1 X120.626 Y142.6 E8.08881
G1 X114.318 Y142.6 E8.38778
G1 X111.53 Y142.639 E8.51993
G1 X108.746 Y142.758 E8.652
G1 X106.031 Y142.95 E8.781
G1 X103.298 Y143.221 E8.91117
G1 X100.538 Y143.574 E9.04305
G1 X97.838 Y143.998 E9.17259
G1 X95.134 Y144.501 E9.30294
G1 X92.112 Y145.156 E9.4495
G1 X90.938 Y145.431 E9.50665
G1 X90.58 Y145.503 E9.52395
G1 X90.131 Y145.551 E9.54536
G1 X89.259 Y145.568 E9.58669
G1 X89.003 Y145.564 E9.59883
G1 X88.554 Y145.517 E9.62022
G1 X87.668 Y145.346 E9.66299
G1 X87.427 Y145.291 E9.67471
G1 X86.992 Y145.151 E9.69637
G1 X86.249 Y144.835 E9.73463
G1 X85.973 Y144.709 E9.74901
G1 X85.563 Y144.475 E9.77139
G1 X84.915 Y144.022 E9.80886
G1 X84.656 Y143.829 E9.82417
G1 X84.32 Y143.53 E9.84549
G1 X83.764 Y142.939 E9.88395
G1 X83.531 Y142.673 E9.90071
G1 X83.273 Y142.317 E9.92154
G1 X82.828 Y141.579 E9.96239
G1 X82.701 Y141.352 E9.97472
G1 X82.514 Y140.935 E9.99638
G1 X82.232 Y140.121 E10.03721
G1 X82.152 Y139.864 E10.04996
G1 X82.055 Y139.41 E10.07197
G1 X81.951 Y138.564 E10.11237
G1 X81.926 Y138.295 E10.12517
G1 X81.924 Y137.832 E10.14711
G1 X81.99 Y137.061 E10.18379
G1 X82.037 Y136.656 E10.20311
G1 X82.089 Y136.36 E10.21736
G1 X82.286 Y135.527 E10.25793
G1 X82.897 Y132.765 E10.392
G1 X83.409 Y130.098 E10.52071
G1 X83.852 Y127.362 E10.65208
G1 X84.212 Y124.661 E10.78122
G1 X84.506 Y121.869 E10.91428
G1 X84.711 Y119.176 E11.04229
G1 X84.843 Y116.423 E11.17292
G1 X84.9 Y113.069 E11.33191
G1 X84.9 Y106.908 E11.62391
G1 X84.861 Y104.12 E11.75606
G1 X84.742 Y101.327 E11.88856
G1 X84.55 Y98.621 E12.01714
G1 X84.279 Y95.888 E12.1473
G1 X83.926 Y93.129 E12.27913
G1 X83.502 Y90.429 E12.40867
G1 X82.998 Y87.72 E12.53927
G1 X82.415 Y85.007 E12.67079
G1 X82.115 Y83.757 E12.73172
G1 X82.063 Y83.472 E12.74545
G1 X81.95 Y82.553 E12.78933
G1 X81.926 Y82.291 E12.8018
G1 X81.924 Y81.832 E12.82356
G1 X81.99 Y81.061 E12.86023
G1 X82.03 Y80.716 E12.87669
G1 X82.124 Y80.264 E12.89857
G1 X82.383 Y79.414 E12.94069
G1 X82.461 Y79.186 E12.95211
G1 X82.644 Y78.774 E12.97348
G1 X83.024 Y78.084 E13.01081
G1 X83.207 Y77.775 E13.02783
G1 X83.47 Y77.41 E13.04915
G1 X83.981 Y76.819 E13.08618
G0 F9000 X84.284 Y77.081
G1 F2400 X84.497 Y76.849 E13.10111
G1 X84.786 Y76.586 E13.11963
G1 X85.432 Y76.097 E13.15803
G1 X85.698 Y75.909 E13.17347
G1 X86.028 Y75.717 E13.19157
G1 X86.793 Y75.36 E13.23158
G1 X87.036 Y75.255 E13.24412
G1 X87.409 Y75.133 E13.26272
G1 X88.221 Y74.944 E13.30224
G1 X88.485 Y74.891 E13.315
G1 X88.873 Y74.848 E13.3335
G1 X89.655 Y74.832 E13.37057
G1 X89.99 Y74.836 E13.38645
G1 X90.371 Y74.875 E13.4046
G1 X91.168 Y75.028 E13.44307
G1 X92.567 Y75.346 E13.51107
G1 X95.3 Y75.928 E13.6435
G1 X98.041 Y76.432 E13.77559
G1 X100.743 Y76.85 E13.90518
G1 X103.499 Y77.197 E14.03683
G1 X106.26 Y77.465 E14.16831
G1 X109.028 Y77.656 E14.29981
G1 X111.765 Y77.766 E14.42964
G1 X114.369 Y77.8 E14.55307
G1 X120.688 Y77.8 E14.85256
G1 X123.493 Y77.76 E14.98552
G1 X126.264 Y77.643 E15.11697
G1 X129 Y77.449 E15.24697
G1 X131.76 Y77.175 E15.37842
G1 X134.51 Y76.823 E15.50983
G1 X137.22 Y76.397 E15.63984
G1 X139.959 Y75.888 E15.77188
G1 X142.997 Y75.229 E15.91922
G1 X144.229 Y74.942 E15.97918
G1 X144.498 Y74.889 E15.99217
G1 X144.878 Y74.848 E16.01029
G1 X145.655 Y74.832 E16.04712
G1 X145.99 Y74.836 E16.063
G1 X146.37 Y74.875 E16.0811
G1 X147.168 Y75.028 E16.11961
G1 X147.484 Y75.099 E16.13496
G1 X147.852 Y75.218 E16.1533
G1 X148.585 Y75.529 E16.19103
G1 X148.861 Y75.655 E16.20541
G1 X149.207 Y75.853 E16.22431
G1 X149.914 Y76.348 E16.26521
G1 X150.105 Y76.491 E16.27652
G1 X150.388 Y76.745 E16.29454
G1 X151.005 Y77.403 E16.3373
G1 X151.166 Y77.589 E16.34896
G1 X151.385 Y77.89 E16.3666
G1 X151.823 Y78.616 E16.40679
G1 X151.95 Y78.843 E16.41911
G1 X152.108 Y79.196 E16.43744
G1 X152.386 Y79.998 E16.47767
G1 X152.466 Y80.255 E16.49043
G1 X152.548 Y80.638 E16.509
G1 X152.65 Y81.462 E16.54835
G1 X152.676 Y81.743 E16.56172
G1 X152.677 Y82.134 E16.58025
G1 X152.604 Y82.976 E16.62031
G1 X152.566 Y83.297 E16.63563
G1 X152.522 Y83.543 E16.64748
G1 X152.316 Y84.416 E16.68999
G1 X151.725 Y87.088 E16.81969
G1 X151.191 Y89.868 E16.95386
G1 X150.756 Y92.558 E17.08301
G1 X150.388 Y95.316 E17.21489
G1 X150.1 Y98.048 E17.34509
G1 X149.887 Y100.846 E17.47809
G1 X149.757 Y103.541 E17.60596
G1 X149.7 Y106.924 E17.76633
G1 X149.7 Y113.129 E18.06042
G1 X149.74 Y115.903 E18.19191
G1 X149.857 Y118.674 E18.32336
G1 X150.051 Y121.41 E18.45336
G1 X150.325 Y124.168 E18.58472
G1 X150.676 Y126.913 E18.71588
G1 X151.104 Y129.634 E18.84643
G1 X151.611 Y132.365 E18.97808
G1 X152.192 Y135.068 E19.10911
G1 X152.496 Y136.336 E19.17091
G1 X152.54 Y136.576 E19.18248
G1 X152.65 Y137.463 E19.22484
G1 X152.676 Y137.743 E19.23817
G1 X152.677 Y138.132 E19.25661
G1 X152.606 Y138.959 E19.29595
G1 X152.573 Y139.239 E19.30931
G1 X152.494 Y139.618 E19.32766
G1 X152.24 Y140.453 E19.36902
G1 X152.161 Y140.684 E19.3806
G1 X152.006 Y141.033 E19.39869
G1 X151.602 Y141.765 E19.43832
G1 X151.453 Y142.015 E19.45212
G1 X151.227 Y142.328 E19.47041
G1 X150.677 Y142.962 E19.51019
G1 X150.505 Y143.149 E19.52223
G1 X150.214 Y143.414 E19.54089
G1 X149.508 Y143.947 E19.58282
G1 X149.308 Y144.088 E19.59441
G1 X148.973 Y144.283 E19.61278
G1 X148.211 Y144.638 E19.65263
G1 X147.966 Y144.744 E19.66528
G1 X147.592 Y144.867 E19.68394
G1 X146.779 Y145.056 E19.7235
G1 X146.515 Y145.109 E19.73626
G1 X146.127 Y145.152 E19.75476
G1 X145.345 Y145.168 E19.79184
G1 X145.01 Y145.164 E19.80771
G1 X144.629 Y145.125 E19.82587
G1 X143.832 Y144.972 E19.86433
G1 X142.433 Y144.654 E19.93233
G1 X139.7 Y144.072 E20.06477
G1 X136.959 Y143.568 E20.19685
G1 X134.257 Y143.15 E20.32644
G1 X131.501 Y142.803 E20.45809
G1 X128.74 Y142.535 E20.58957
G1 X125.972 Y142.344 E20.72107
G1 X123.235 Y142.234 E20.8509
G1 X120.631 Y142.2 E20.97433
G1 X114.312 Y142.2 E21.27382
G1 X111.507 Y142.24 E21.40678
G1 X108.736 Y142.357 E21.53823
G1 X106 Y142.551 E21.66823
G1 X103.24 Y142.825 E21.79969
G1 X100.49 Y143.177 E21.93109
G1 X97.78 Y143.603 E22.06111
G1 X95.041 Y144.112 E22.19315
G1 X92.003 Y144.771 E22.34048
G1 X90.771 Y145.058 E22.40044
G1 X90.502 Y145.111 E22.41343
G1 X90.122 Y145.152 E22.43155
G1 X89.345 Y145.168 E22.46838
G1 X89.01 Y145.164 E22.48426
G1 X88.63 Y145.125 E22.50237
G1 X87.832 Y144.972 E22.54088
G1 X87.516 Y144.901 E22.55623
G1 X87.148 Y144.782 E22.57456
G1 X86.415 Y144.471 E22.6123
G1 X86.139 Y144.345 E22.62668
G1 X85.793 Y144.147 E22.64557
G1 X85.086 Y143.652 E22.68648
G1 X84.895 Y143.509 E22.69778
G1 X84.612 Y143.255 E22.71581
G1 X83.995 Y142.597 E22.75856
G1 X83.834 Y142.411 E22.77022
G1 X83.615 Y142.11 E22.78786
G1 X83.177 Y141.384 E22.82805
G1 X83.05 Y141.157 E22.84038
G1 X82.892 Y140.804 E22.85871
G1 X82.614 Y140.002 E22.89894
G1 X82.534 Y139.745 E22.91169
G1 X82.452 Y139.361 E22.9303
G1 X82.349 Y138.527 E22.97013
G1 X82.324 Y138.258 E22.98294
G1 X82.323 Y137.866 E23.00152
G1 X82.396 Y137.027 E23.04143
G1 X82.434 Y136.703 E23.05689
G1 X82.478 Y136.452 E23.06897
G1 X82.684 Y135.582 E23.11134
G1 X83.277 Y132.903 E23.24139
G1 X83.809 Y130.132 E23.37512
G1 X84.244 Y127.442 E23.50427
G1 X84.612 Y124.684 E23.63615
G1 X84.9 Y121.952 E23.76635
G1 X85.113 Y119.154 E23.89935
G1 X85.243 Y116.449 E24.0277
G1 X85.3 Y113.076 E24.18759
G1 X85.3 Y106.871 E24.48168
G1 X85.26 Y104.097 E24.61317
G1 X85.142 Y101.31 E24.74538
G1 X84.949 Y98.59 E24.87462
G1 X84.675 Y95.83 E25.00608
G1 X84.323 Y93.081 E25.13743
G1 X83.9 Y90.385 E25.26677
G1 X83.389 Y87.635 E25.39934
G1 X82.806 Y84.923 E25.53082
G1 X82.504 Y83.664 E25.59218
G1 X82.46 Y83.423 E25.60379
G1 X82.348 Y82.517 E25.64706
G1 X82.324 Y82.255 E25.65953
G1 X82.323 Y81.866 E25.67796
G1 X82.396 Y81.027 E25.71788
G1 X82.427 Y80.762 E25.73053
G1 X82.507 Y80.38 E25.74902
G1 X82.761 Y79.544 E25.79043
G1 X82.839 Y79.316 E25.80186
G1 X82.994 Y78.967 E25.81995
G1 X83.414 Y78.207 E25.86111
G1 X83.55 Y77.98 E25.87365
G1 X83.773 Y77.672 E25.89167
G1 X84.284 Y77.081 E25.9287
G1 F2700 E24.4287
;MESH:square_tower.stl
G0 F9000 X115.9 Y135.6
;TYPE:WALL-INNER
G1 F2700 E26.05343
G1 F2400 X115.9 Y136.1 E26.07713
G1 X119.1 Y136.1 E26.22879
G1 X119.1 Y135.6 E26.25249
G1 X143.1 Y135.6 E27.38999
G1 X143.101 Y111.6 E28.52748
G1 X143.401 Y111.6 E28.5417
G1 X143.6 Y111.6 E28.55113
G1 X143.6 Y111.401 E28.55724
G1 X143.599 Y108.4 E28.69947
G1 X143.1 Y108.4 E28.72312
G1 X143.1 Y84.4 E29.86062
G1 X119.1 Y84.4 E30.99811
G1 X119.1 Y83.9 E31.02181
G1 X115.9 Y83.9 E31.17348
G1 X115.9 Y84.4 E31.19718
G1 X91.9 Y84.4 E32.33467
G1 X91.899 Y104.4 E33.28259
G1 X91.599 Y104.4 E33.29681
G1 X91.4 Y104.4 E33.30624
G1 X91.4 Y104.599 E33.31234
G1 X91.401 Y107.6 E33.45457
G1 X91.9 Y107.6 E33.47822
G1 X91.9 Y135.6 E34.8053
G1 X115.9 Y135.6 E35.9428
G0 F9000 X116.3 Y135.2
;TYPE:WALL-OUTER
G1 F2400 X116.3 Y135.7 E35.9665
G1 X118.7 Y135.7 E36.08025
G1 X118.7 Y135.2 E36.10395
G1 X142.7 Y135.2 E37.24144
G1 X142.701 Y111.2 E38.37894
G1 X143.2 Y111.2 E38.40259
G1 X143.199 Y108.8 E38.51634
G1 X142.7 Y108.8 E38.53999
G1 X142.7 Y84.8 E39.67749
G1 X118.7 Y84.8 E40.81498
G1 X118.7 Y84.3 E40.83868
G1 X116.3 Y84.3 E40.95243
G1 X116.3 Y84.8 E40.97613
G1 X92.3 Y84.8 E42.11363
G1 X92.299 Y104.8 E43.06154
G1 X91.8 Y104.8 E43.08519
G1 X91.801 Y107.2 E43.19894
G1 X92.3 Y107.2 E43.22259
G1 X92.3 Y135.2 E44.54967
G1 X116.3 Y135.2 E45.68717
G1 F2700 E44.18717
G0 F9000 X144.14 Y142.181
;TYPE:WALL-INNER
G1 F2700 E45.81189
G1 F2400 X143.302 Y141.808 E45.85537
G1 X142.559 Y141.268 E45.8989
G1 X141.94 Y140.581 E45.94273
G1 X141.485 Y139.792 E45.98589
G1 X141.359 Y139.4 E46.00541
G1 X93.641 Y139.4 E48.26704
G1 X93.515 Y139.792 E48.28655
G1 X93.06 Y140.581 E48.32972
G1 X92.441 Y141.268 E48.37355
G1 X91.698 Y141.808 E48.41708
G1 X90.86 Y142.181 E48.46056
G1 X89.959 Y142.373 E48.50422
G1 X89.041 Y142.373 E48.54773
G1 X88.14 Y142.181 E48.59139
G1 X87.302 Y141.808 E48.63486
G1 X86.559 Y141.268 E48.6784
G1 X85.943 Y140.584 E48.72203
G1 X85.482 Y139.785 E48.76575
G1 X85.2 Y138.918 E48.80896
G1 X85.103 Y138 E48.85271
G1 X85.2 Y137.082 E48.89646
G1 X85.482 Y136.215 E48.93967
G1 X85.943 Y135.416 E48.98339
G1 X86.559 Y134.732 E49.02702
G1 X87.302 Y134.192 E49.07055
G1 X88.1 Y133.837 E49.11195
G1 X88.1 Y86.163 E51.37149
G1 X87.302 Y85.808 E51.41288
G1 X86.559 Y85.268 E51.45642
G1 X85.943 Y84.584 E51.50005
G1 X85.482 Y83.785 E51.54377
G1 X85.2 Y82.918 E51.58698
G1 X85.103 Y82 E51.63073
G1 X85.2 Y81.082 E51.67448
G1 X85.482 Y80.215 E51.71769
G1 X85.943 Y79.416 E51.76141
G1 X86.559 Y78.732 E51.80504
G1 X87.302 Y78.192 E51.84857
G1 X88.14 Y77.819 E51.89205
G1 X89.041 Y77.627 E51.93571
G1 X89.959 Y77.627 E51.97922
G1 X90.86 Y77.819 E52.02288
G1 X91.698 Y78.192 E52.06635
G1 X92.441 Y78.732 E52.10989
G1 X93.06 Y79.419 E52.15372
G1 X93.515 Y80.208 E52.19688
G1 X93.641 Y80.6 E52.2164
G1 X141.359 Y80.6 E54.47803
G1 X141.485 Y80.208 E54.49754
G1 X141.94 Y79.419 E54.54071
G1 X142.559 Y78.732 E54.58454
G1 X143.302 Y78.192 E54.62807
G1 X144.14 Y77.819 E54.67155
G1 X145.041 Y77.627 E54.71521
G1 X145.959 Y77.627 E54.75872
G1 X146.86 Y77.819 E54.80238
G1 X147.698 Y78.192 E54.84585
G1 X148.441 Y78.732 E54.88939
G1 X149.057 Y79.416 E54.93301
G1 X149.518 Y80.215 E54.97673
G1 X149.8 Y81.082 E55.01995
G1 X149.897 Y82 E55.0637
G1 X149.8 Y82.918 E55.10745
G1 X149.518 Y83.785 E55.15066
G1 X149.057 Y84.584 E55.19438
G1 X148.441 Y85.268 E55.23801
G1 X147.698 Y85.808 E55.28154
G1 X146.9 Y86.163 E55.32294
G1 X146.9 Y133.837 E57.58248
G1 X147.698 Y134.192 E57.62387
G1 X148.441 Y134.732 E57.66741
G1 X149.057 Y135.416 E57.71103
G1 X149.518 Y136.215 E57.75476
G1 X149.8 Y137.082 E57.79797
G1 X149.897 Y138 E57.84172
G1 X149.8 Y138.918 E57.88547
G1 X149.518 Y139.785 E57.92868
G1 X149.057 Y140.584 E57.9724
G1 X148.441 Y141.268 E58.01603
G1 X147.698 Y141.808 E58.05956
G1 X146.86 Y142.181 E58.10304
G1 X145.959 Y142.373 E58.1467
G1 X145.041 Y142.373 E58.19021
G1 X144.14 Y142.181 E58.23387
G0 F9000 X144.016 Y142.563
;TYPE:WALL-OUTER
G1 F2400 X143.099 Y142.155 E58.28144
G1 X142.291 Y141.568 E58.32877
G1 X141.616 Y140.819 E58.37656
G1 X141.116 Y139.953 E58.42396
G1 X141.067 Y139.8 E58.43157
G1 X93.933 Y139.8 E60.66552
G1 X93.884 Y139.953 E60.67313
G1 X93.384 Y140.819 E60.72053
G1 X92.709 Y141.568 E60.76832
G1 X91.901 Y142.155 E60.81565
G1 X90.984 Y142.563 E60.86322
