; G-Code generated by Simplify3D(R) Version 4.1.2
; Jan 31, 2021 at 1:14:31 AM
; Settings Summary
;   processName,Process1
;   applyToModels,ringing_tower
;   profileName,Creality Ender 3 (modified)
;   profileVersion,2020-12-13 20:08:26
;   baseProfile,
;   printMaterial,PLA
;   printQuality,Medium
;   printExtruders,
;   extruderName,Primary Extruder
;   extruderToolheadNumber,0
;   extruderDiameter,0.4
;   extruderAutoWidth,0
;   extruderWidth,0.4
;   extrusionMultiplier,0.95
;   extruderUseRetract,1
;   extruderRetractionDistance,0.5
;   extruderExtraRestartDistance,0
;   extruderRetractionZLift,0
;   extruderRetractionSpeed,2400
;   extruderUseCoasting,0
;   extruderCoastingDistance,0.2
;   extruderUseWipe,0
;   extruderWipeDistance,5
;   primaryExtruder,0
;   layerHeight,0.25
;   topSolidLayers,0
;   bottomSolidLayers,6
;   perimeterOutlines,1
;   printPerimetersInsideOut,1
;   startPointOption,3
;   startPointOriginX,0
;   startPointOriginY,0
;   sequentialIslands,0
;   spiralVaseMode,1
;   firstLayerHeightPercentage,120
;   firstLayerWidthPercentage,150
;   firstLayerUnderspeed,0.25
;   useRaft,0
;   raftExtruder,0
;   raftTopLayers,3
;   raftBaseLayers,2
;   raftOffset,3
;   raftSeparationDistance,0.14
;   raftTopInfill,100
;   aboveRaftSpeedMultiplier,0.3
;   useSkirt,1
;   skirtExtruder,0
;   skirtLayers,1
;   skirtOutlines,2
;   skirtOffset,4
;   usePrimePillar,0
;   primePillarExtruder,999
;   primePillarWidth,12
;   primePillarLocation,7
;   primePillarSpeedMultiplier,1
;   useOozeShield,0
;   oozeShieldExtruder,999
;   oozeShieldOffset,2
;   oozeShieldOutlines,1
;   oozeShieldSidewallShape,1
;   oozeShieldSidewallAngle,30
;   oozeShieldSpeedMultiplier,1
;   infillExtruder,0
;   internalInfillPattern,Rectilinear
;   externalInfillPattern,Rectilinear
;   infillPercentage,0
;   outlineOverlapPercentage,15
;   infillExtrusionWidthPercentage,100
;   minInfillLength,5
;   infillLayerInterval,1
;   internalInfillAngles,45,-45
;   overlapInternalInfillAngles,0
;   externalInfillAngles,45,-45
;   generateSupport,0
;   supportExtruder,0
;   supportInfillPercentage,30
;   supportExtraInflation,0
;   supportBaseLayers,0
;   denseSupportExtruder,0
;   denseSupportLayers,0
;   denseSupportInfillPercentage,70
;   supportLayerInterval,1
;   supportHorizontalPartOffset,0.3
;   supportUpperSeparationLayers,1
;   supportLowerSeparationLayers,1
;   supportType,0
;   supportGridSpacing,4
;   maxOverhangAngle,45
;   supportAngles,0
;   temperatureName,Primary Extruder,Heated Bed
;   temperatureNumber,0,0
;   temperatureSetpointCount,1,1
;   temperatureSetpointLayers,1,1
;   temperatureSetpointTemperatures,205,60
;   temperatureStabilizeAtStartup,0,0
;   temperatureHeatedBed,0,1
;   fanLayers,1,2
;   fanSpeeds,0,100
;   blipFanToFullPower,0
;   adjustSpeedForCooling,1
;   minSpeedLayerTime,3
;   minCoolingSpeedSlowdown,20
;   increaseFanForCooling,0
;   minFanLayerTime,45
;   maxCoolingFanSpeed,100
;   increaseFanForBridging,0
;   bridgingFanSpeed,100
;   use5D,1
;   relativeEdistances,0
;   allowEaxisZeroing,1
;   independentExtruderAxes,0
;   includeM10123,0
;   stickySupport,1
;   applyToolheadOffsets,0
;   gcodeXoffset,0
;   gcodeYoffset,0
;   gcodeZoffset,0
;   overrideMachineDefinition,1
;   machineTypeOverride,0
;   strokeXoverride,220
;   strokeYoverride,220
;   strokeZoverride,250
;   originOffsetXoverride,-5
;   originOffsetYoverride,-5
;   originOffsetZoverride,0
;   homeXdirOverride,-1
;   homeYdirOverride,-1
;   homeZdirOverride,-1
;   flipXoverride,1
;   flipYoverride,-1
;   flipZoverride,1
;   toolheadOffsets,0,0|0,0|0,0|0,0|0,0|0,0
;   overrideFirmwareConfiguration,1
;   firmwareTypeOverride,RepRap (Marlin/Repetier/Sprinter)
;   GPXconfigOverride,r2
;   baudRateOverride,115200
;   overridePrinterModels,1
;   printerModelsOverride
;   startingGcode,G28 ; home all axes,G1 Z50,;M201 X5000 Y5000 ; custom raise acceleration limits,;M204 P600 ; custom acceleration - D,;M205 J0.09 ; custom junction deviation - D;,;M581 Z1.26; set z offset,;M92 E409.1; E steps/mm,M104 S170 ; start extruder temp,M140 S[bed0_temperature]; start bed temp,M190 S[bed0_temperature]; wait for bed temp,G29,M109 S[extruder0_temperature] ; wait for extruder temp,G1 X5 Y10 Z0.2 F3000 ; get ready to prime,G92 E0 ; reset extrusion distance,G1 X160 E15 F600 ; prime nozzle,G1 X180 F5000 ; quick wipe
;   layerChangeGcode,
;   retractionGcode,
;   toolChangeGcode,
;   endingGcode,;M117 Done,M400,G28 X0 Y200 ; home X axis,M106 S0 ; turn off cooling fan,M104 S0 ; turn off extruder,M140 S0 ; turn off bed,M84 ; disable motors,;M117 [output_filename],M400,M300 S440 P100
;   exportFileFormat,gcode
;   celebration,0
;   celebrationSong,Random Song
;   postProcessing,{REPLACE "; layer" "M117 Layer"},{REPLACE " Z = " " Z="},{REPLACE "T0" ""}
;   defaultSpeed,4800
;   outlineUnderspeed,0.5
;   solidInfillUnderspeed,0.8
;   supportUnderspeed,0.8
;   rapidXYspeed,9000
;   rapidZspeed,300
;   minBridgingArea,50
;   bridgingExtraInflation,0
;   bridgingExtrusionMultiplier,1
;   bridgingSpeedMultiplier,1
;   useFixedBridgingAngle,0
;   fixedBridgingAngle,0
;   applyBridgingToPerimeters,0
;   filamentDiameters,1.75|1.75|1.75|1.75|1.75|1.75
;   filamentPricesPerKg,46|46|46|46|46|46
;   filamentDensities,1.25|1.25|1.25|1.25|1.25|1.25
;   useMinPrintHeight,0
;   minPrintHeight,16
;   useMaxPrintHeight,0
;   maxPrintHeight,0
;   useDiaphragm,0
;   diaphragmLayerInterval,20
;   robustSlicing,1
;   mergeAllIntoSolid,0
;   onlyRetractWhenCrossingOutline,0
;   retractBetweenLayers,0
;   useRetractionMinTravel,0
;   retractionMinTravel,3
;   retractWhileWiping,0
;   onlyWipeOutlines,1
;   avoidCrossingOutline,0
;   maxMovementDetourFactor,3
;   toolChangeRetractionDistance,12
;   toolChangeExtraRestartDistance,-0.5
;   toolChangeRetractionSpeed,600
;   externalThinWallType,0
;   internalThinWallType,2
;   thinWallAllowedOverlapPercentage,10
;   singleExtrusionMinLength,1
;   singleExtrusionMinPrintingWidthPercentage,50
;   singleExtrusionMaxPrintingWidthPercentage,200
;   singleExtrusionEndpointExtension,0.2
;   horizontalSizeCompensation,0
;SET_PRESSURE_ADVANCE ADVANCE=0
;SET_INPUT_SHAPER SHAPER_FREQ_X=0 SHAPER_FREQ_Y=0
;TUNING_TOWER COMMAND=SET_VELOCITY_LIMIT PARAMETER=ACCEL START=1250 FACTOR=100 BAND=5
START_PRINT BED_TEMP=55 EXTRUDER_TEMP=200

; process Process1
M117 Layer 1, Z=0.300

G92 E0.0000
G1 E-0.5000 F2400
; feature skirt
; tool H0.300 W0.600
G1 Z0.300 F300
G1 X50.100 Y52.970 F9000
G1 E0.0000 F2400
G92 E0.0000
G1 X52.970 Y50.100 E0.2886 F1200
G1 X128.819 Y50.100 E5.6809
G1 X130.946 Y51.207 E5.8514
G1 X133.672 Y55.100 E6.1892
G1 X136.070 Y55.100 E6.3598
G1 X138.796 Y51.207 E6.6976
G1 X140.923 Y50.100 E6.8681
G1 X177.030 Y50.100 E9.4351
G1 X179.900 Y52.970 E9.7236
G1 X179.900 Y65.030 E10.5810
G1 X177.030 Y67.900 E10.8696
G1 X122.025 Y67.900 E14.7800
G1 X120.224 Y67.154 E14.9186
G1 X119.470 Y66.400 E14.9944
G1 X118.530 Y66.400 E15.0613
G1 X117.776 Y67.154 E15.1371
G1 X115.975 Y67.900 E15.2757
G1 X67.900 Y67.900 E18.6935
G1 X67.900 Y98.244 E20.8508
G1 X67.280 Y99.903 E20.9767
G1 X66.400 Y100.916 E21.0721
G1 X66.400 Y103.012 E21.2211
G1 X67.280 Y104.025 E21.3165
G1 X67.900 Y105.684 E21.4424
G1 X67.900 Y132.316 E23.3357
G1 X67.280 Y133.975 E23.4616
G1 X66.400 Y134.988 E23.5571
G1 X66.400 Y137.084 E23.7060
G1 X67.280 Y138.097 E23.8015
G1 X67.900 Y139.756 E23.9274
G1 X67.900 Y177.030 E26.5773
G1 X65.030 Y179.900 E26.8659
G1 X52.970 Y179.900 E27.7232
G1 X50.100 Y177.030 E28.0118
G1 X50.100 Y101.181 E33.4041
G1 X51.207 Y99.054 E33.5746
G1 X55.100 Y96.328 E33.9125
G1 X55.100 Y93.930 E34.0830
G1 X51.207 Y91.204 E34.4208
G1 X50.100 Y89.077 E34.5913
G1 X50.100 Y52.970 E37.1583
G92 E0.0000
G1 E-0.5000 F2400
G1 X50.700 Y53.219 F9000
G1 E0.0000 F2400
G92 E0.0000
G1 X53.219 Y50.700 E0.2533 F1200
G1 X128.672 Y50.700 E5.6175
G1 X130.539 Y51.672 E5.7671
G1 X133.359 Y55.700 E6.1167
G1 X136.382 Y55.700 E6.3316
G1 X139.203 Y51.672 E6.6812
G1 X141.070 Y50.700 E6.8308
G1 X176.781 Y50.700 E9.3697
G1 X179.300 Y53.219 E9.6230
G1 X179.300 Y64.781 E10.4450
G1 X176.781 Y67.300 E10.6982
G1 X122.145 Y67.300 E14.5825
G1 X120.564 Y66.645 E14.7041
G1 X119.719 Y65.800 E14.7891
G1 X118.281 Y65.800 E14.8913
G1 X117.436 Y66.645 E14.9763
G1 X115.855 Y67.300 E15.0979
G1 X67.300 Y67.300 E18.5499
G1 X67.300 Y98.136 E20.7421
G1 X66.756 Y99.591 E20.8526
G1 X65.800 Y100.692 E20.9563
G1 X65.800 Y103.236 E21.1371
G1 X66.756 Y104.337 E21.2408
G1 X67.300 Y105.793 E21.3513
G1 X67.300 Y132.207 E23.2292
G1 X66.756 Y133.663 E23.3397
G1 X65.800 Y134.764 E23.4433
G1 X65.800 Y137.308 E23.6242
G1 X66.756 Y138.409 E23.7278
G1 X67.300 Y139.864 E23.8383
G1 X67.300 Y176.781 E26.4628
G1 X64.781 Y179.300 E26.7161
G1 X53.219 Y179.300 E27.5381
G1 X50.700 Y176.781 E27.7914
G1 X50.700 Y101.328 E33.1556
G1 X51.672 Y99.461 E33.3052
G1 X55.700 Y96.641 E33.6548
G1 X55.700 Y93.618 E33.8697
G1 X51.672 Y90.797 E34.2193
G1 X50.700 Y88.930 E34.3689
G1 X50.700 Y53.219 E36.9078
G92 E0.0000
G1 E-0.5000 F2400
; feature outer perimeter
G1 X55.300 Y55.300 F9000
G1 E0.0000 F2400
G92 E0.0000
G1 X87.822 Y55.300 E2.3121 F600
G1 X87.822 Y55.405 E2.3196
G1 X84.395 Y60.300 E2.7444
G1 X91.999 Y60.300 E3.2850
G1 X88.572 Y55.405 E3.7098
G1 X88.572 Y55.300 E3.7173
G1 X127.464 Y55.300 E6.4823
G1 X130.965 Y60.300 E6.9162
G1 X138.777 Y60.300 E7.4716
G1 X142.278 Y55.300 E7.9056
G1 X174.700 Y55.300 E10.2105
G1 X174.700 Y62.700 E10.7366
G1 X123.124 Y62.700 E14.4033
G1 X121.624 Y61.200 E14.5542
G1 X116.376 Y61.200 E14.9273
G1 X114.876 Y62.700 E15.0781
G1 X62.700 Y62.700 E18.7875
G1 X62.700 Y97.246 E21.2435
G1 X61.200 Y98.974 E21.4061
G1 X61.200 Y104.955 E21.8313
G1 X62.700 Y106.682 E21.9940
G1 X62.700 Y131.318 E23.7455
G1 X61.200 Y133.045 E23.9081
G1 X61.200 Y139.026 E24.3333
G1 X62.700 Y140.754 E24.4959
G1 X62.700 Y174.700 E26.9093
G1 X55.300 Y174.700 E27.4354
G1 X55.300 Y142.178 E29.7475
G1 X55.405 Y142.178 E29.7550
G1 X60.300 Y145.605 E30.1798
G1 X60.300 Y138.001 E30.7204
G1 X55.405 Y141.428 E31.1452
G1 X55.300 Y141.428 E31.1527
G1 X55.300 Y102.536 E33.9177
G1 X60.300 Y99.035 E34.3516
G1 X60.300 Y91.223 E34.9070
G1 X55.300 Y87.722 E35.3410
G1 X55.300 Y55.300 E37.6460
G92 E0.0000
G1 E-0.5000 F2400
; feature solid layer
G1 X77.023 Y55.810 F9000
G1 E0.0000 F2400
G92 E0.0000
G1 X83.403 Y62.190 E0.6415 F960
G1 X82.555 Y62.190 E0.7018
G1 X76.175 Y55.810 E1.3432
G1 X75.326 Y55.810 E1.4036
G1 X81.706 Y62.190 E2.0450
G1 X80.858 Y62.190 E2.1053
G1 X74.478 Y55.810 E2.7468
G1 X73.629 Y55.810 E2.8071
G1 X80.009 Y62.190 E3.4486
G1 X79.161 Y62.190 E3.5089
G1 X72.781 Y55.810 E4.1504
G1 X71.932 Y55.810 E4.2107
G1 X78.312 Y62.190 E4.8521
G1 X77.464 Y62.190 E4.9125
G1 X71.084 Y55.810 E5.5539
G1 X70.235 Y55.810 E5.6142
G1 X76.615 Y62.190 E6.2557
G1 X75.766 Y62.190 E6.3160
G1 X69.386 Y55.810 E6.9575
G1 X68.538 Y55.810 E7.0178
G1 X74.918 Y62.190 E7.6592
G1 X74.069 Y62.190 E7.7196
G1 X67.689 Y55.810 E8.3610
G1 X66.841 Y55.810 E8.4214
G1 X73.221 Y62.190 E9.0628
G1 X72.372 Y62.190 E9.1231
G1 X65.992 Y55.810 E9.7646
G1 X65.144 Y55.810 E9.8249
G1 X71.524 Y62.190 E10.4664
G1 X70.675 Y62.190 E10.5267
G1 X64.295 Y55.810 E11.1681
G1 X63.447 Y55.810 E11.2285
G1 X69.827 Y62.190 E11.8699
G1 X68.978 Y62.190 E11.9302
G1 X62.598 Y55.810 E12.5717
G1 X61.750 Y55.810 E12.6320
G1 X68.130 Y62.190 E13.2735
G1 X67.281 Y62.190 E13.3338
G1 X60.901 Y55.810 E13.9753
G1 X60.053 Y55.810 E14.0356
G1 X66.433 Y62.190 E14.6770
G1 X65.584 Y62.190 E14.7374
G1 X59.204 Y55.810 E15.3788
G1 X58.356 Y55.810 E15.4391
G1 X64.736 Y62.190 E16.0806
G1 X63.887 Y62.190 E16.1409
G1 X57.507 Y55.810 E16.7824
G1 X56.659 Y55.810 E16.8427
G1 X63.039 Y62.190 E17.4842
G1 X62.190 Y62.190 E17.5445
G1 X55.810 Y55.810 E18.1859
G1 X55.810 Y56.659 E18.2463
G1 X62.190 Y63.039 E18.8877
G1 X62.190 Y63.887 E18.9480
G1 X55.810 Y57.507 E19.5895
G1 X55.810 Y58.356 E19.6498
G1 X62.190 Y64.736 E20.2913
G1 X62.190 Y65.584 E20.3516
G1 X55.810 Y59.204 E20.9931
G1 X55.810 Y60.053 E21.0534
G1 X62.190 Y66.433 E21.6948
G1 X62.190 Y67.281 E21.7552
G1 X55.810 Y60.901 E22.3966
G1 X55.810 Y61.750 E22.4569
G1 X62.190 Y68.130 E23.0984
G1 X62.190 Y68.978 E23.1587
G1 X55.810 Y62.598 E23.8002
G1 X55.810 Y63.447 E23.8605
G1 X62.190 Y69.827 E24.5020
G1 X62.190 Y70.675 E24.5623
G1 X55.810 Y64.295 E25.2037
G1 X55.810 Y65.144 E25.2641
G1 X62.190 Y71.524 E25.9055
G1 X62.190 Y72.372 E25.9658
G1 X55.810 Y65.992 E26.6073
G1 X55.810 Y66.841 E26.6676
G1 X62.190 Y73.221 E27.3091
G1 X62.190 Y74.069 E27.3694
G1 X55.810 Y67.689 E28.0108
G1 X55.810 Y68.538 E28.0712
G1 X62.190 Y74.918 E28.7126
G1 X62.190 Y75.766 E28.7730
G1 X55.810 Y69.386 E29.4144
G1 X55.810 Y70.235 E29.4747
G1 X62.190 Y76.615 E30.1162
G1 X62.190 Y77.463 E30.1765
G1 X55.810 Y71.083 E30.8180
G1 X55.810 Y71.932 E30.8783
G1 X62.190 Y78.312 E31.5197
G1 X62.190 Y79.161 E31.5801
G1 X55.810 Y72.781 E32.2215
G1 X55.810 Y73.629 E32.2818
G1 X62.190 Y80.009 E32.9233
G1 X62.190 Y80.858 E32.9836
G1 X55.810 Y74.478 E33.6251
G1 X55.810 Y75.326 E33.6854
G1 X62.190 Y81.706 E34.3269
G1 X62.190 Y82.555 E34.3872
G1 X55.810 Y76.175 E35.0286
G1 X55.810 Y77.023 E35.0890
G1 X62.190 Y83.403 E35.7304
G1 X62.190 Y84.252 E35.7907
G1 X55.810 Y77.872 E36.4322
G1 X55.810 Y78.720 E36.4925
G1 X62.190 Y85.100 E37.1340
G1 X62.190 Y85.949 E37.1943
G1 X55.810 Y79.569 E37.8358
G1 X55.810 Y80.417 E37.8961
G1 X62.190 Y86.797 E38.5375
G1 X62.190 Y87.646 E38.5979
G1 X55.810 Y81.266 E39.2393
G1 X55.810 Y82.114 E39.2996
G1 X62.190 Y88.494 E39.9411
G1 X62.190 Y89.343 E40.0014
G1 X55.810 Y82.963 E40.6429
G1 X55.810 Y83.811 E40.7032
G1 X62.190 Y90.191 E41.3447
G1 X62.190 Y91.040 E41.4050
G1 X55.810 Y84.660 E42.0464
G1 X55.810 Y85.508 E42.1068
G1 X62.190 Y91.888 E42.7482
G1 X62.190 Y92.737 E42.8085
G1 X60.810 Y91.357 E42.9473
G1 X60.810 Y90.958 E42.9757
G1 X59.478 Y90.025 E43.0913
G1 X55.810 Y86.357 E43.4601
G1 X55.810 Y87.206 E43.5204
G1 X56.647 Y88.043 E43.6046
G92 E0.0000
G1 E-0.5000 F2400
G1 X60.810 Y92.206 F9000
G1 E0.0000 F2400
G92 E0.0000
G1 X62.190 Y93.586 E0.1387 F960
G1 X62.190 Y94.434 E0.1991
G1 X60.810 Y93.054 E0.3378
G1 X60.810 Y93.903 E0.3981
G1 X62.190 Y95.283 E0.5369
G1 X62.190 Y96.131 E0.5972
G1 X60.810 Y94.751 E0.7360
G1 X60.810 Y95.600 E0.7963
G1 X62.190 Y96.980 E0.9350
G1 X62.190 Y97.056 E0.9405
G1 X61.831 Y97.469 E0.9794
G1 X60.810 Y96.448 E1.0820
G1 X60.810 Y97.297 E1.1424
G1 X61.437 Y97.923 E1.2054
G1 X61.042 Y98.377 E1.2481
G1 X60.810 Y98.145 E1.2715
G92 E0.0000
G1 E-0.5000 F2400
G1 X60.492 Y99.524 F9000
G1 E0.0000 F2400
G92 E0.0000
G1 X60.690 Y99.722 E0.0199 F960
G1 X60.690 Y100.571 E0.0803
G1 X59.993 Y99.873 E0.1504
G1 X59.493 Y100.223 E0.1937
G1 X60.690 Y101.419 E0.3140
G1 X60.690 Y102.268 E0.3743
G1 X58.994 Y100.572 E0.5448
G1 X58.495 Y100.922 E0.5881
G1 X60.690 Y103.116 E0.8088
G1 X60.690 Y103.965 E0.8691
G1 X57.996 Y101.271 E1.1400
G1 X57.497 Y101.621 E1.1833
G1 X60.690 Y104.813 E1.5043
G1 X60.690 Y105.145 E1.5279
G1 X62.190 Y106.872 E1.6905
G1 X62.190 Y107.162 E1.7111
G1 X56.998 Y101.970 E2.2331
G1 X56.499 Y102.320 E2.2764
G1 X62.190 Y108.011 E2.8486
G1 X62.190 Y108.859 E2.9089
G1 X56.000 Y102.669 E3.5313
G1 X55.810 Y102.802 E3.5478
G1 X55.810 Y103.328 E3.5851
G1 X62.190 Y109.708 E4.2266
G1 X62.190 Y110.556 E4.2869
G1 X55.810 Y104.176 E4.9284
G1 X55.810 Y105.025 E4.9887
G1 X62.190 Y111.405 E5.6301
G1 X62.190 Y112.253 E5.6905
G1 X55.810 Y105.873 E6.3319
G1 X55.810 Y106.722 E6.3922
G1 X62.190 Y113.102 E7.0337
G1 X62.190 Y113.950 E7.0940
G1 X55.810 Y107.570 E7.7355
G1 X55.810 Y108.419 E7.7958
G1 X62.190 Y114.799 E8.4373
G1 X62.190 Y115.647 E8.4976
G1 X55.810 Y109.267 E9.1390
G1 X55.810 Y110.116 E9.1994
G1 X62.190 Y116.496 E9.8408
G1 X62.190 Y117.344 E9.9011
G1 X55.810 Y110.964 E10.5426
G1 X55.810 Y111.813 E10.6029
G1 X62.190 Y118.193 E11.2444
G1 X62.190 Y119.041 E11.3047
G1 X55.810 Y112.661 E11.9462
G1 X55.810 Y113.510 E12.0065
G1 X62.190 Y119.890 E12.6479
G1 X62.190 Y120.738 E12.7083
G1 X55.810 Y114.358 E13.3497
G1 X55.810 Y115.207 E13.4100
G1 X62.190 Y121.587 E14.0515
G1 X62.190 Y122.435 E14.1118
G1 X55.810 Y116.055 E14.7533
G1 X55.810 Y116.904 E14.8136
G1 X62.190 Y123.284 E15.4551
